public/cropped.svg

<svg width="1916" height="840" viewBox="0 0 1916 840" fill="none" xmlns="http://www.w3.org/2000/svg">
<g clip-path="url(#clip0_164_178)">
<rect width="1916" height="840" fill="#D4F0FC"/>
<path d="M1918 -111.5H-6V684.681C692 951.911 1643.33 808.614 1918 684.681V-111.5Z" fill="url(#paint0_linear_164_178)"/>
<g style="mix-blend-mode:color-dodge">
<path d="M1918 -111.5H-6V684.681C692 951.911 1643.33 808.614 1918 684.681V-111.5Z" fill="url(#paint1_linear_164_178)" fill-opacity="0.8"/>
</g>
<g style="mix-blend-mode:screen">
<path fill-rule="evenodd" clip-rule="evenodd" d="M1260.99 1.90442L1232.67 22.8047C1204.35 43.705 1146.41 86.4555 1049.85 74.1605C951.994 62.8155 815.511 -3.57499 746.172 23.7197C678.12 50.0644 677.211 170.094 637.672 235.079C598.132 300.063 517.388 311.902 443.633 330.518C368.591 350.085 300.539 376.43 248.307 426.908C197.363 476.437 162.239 550.099 105.592 591.9C48.9451 633.7 45.9463 604.472 -4.99809 654C-4.99809 675.059 -3.99718 142 -4.99711 1.90434L1260.99 1.90442Z" fill="url(#paint2_linear_164_178)" fill-opacity="0.2"/>
<path fill-rule="evenodd" clip-rule="evenodd" d="M1260.99 1.90442L1232.67 22.8047C1204.35 43.705 1146.41 86.4555 1049.85 74.1605C951.994 62.8155 815.511 -3.57499 746.172 23.7197C678.12 50.0644 677.211 170.094 637.672 235.079C598.132 300.063 517.388 311.902 443.633 330.518C368.591 350.085 300.539 376.43 248.307 426.908C197.363 476.437 162.239 550.099 105.592 591.9C48.9451 633.7 45.9463 604.472 -4.99809 654C-4.99809 675.059 -3.99718 142 -4.99711 1.90434L1260.99 1.90442Z" stroke="black"/>
</g>
<g style="mix-blend-mode:soft-light" filter="url(#filter0_f_164_178)">
<circle cx="93" cy="258.999" r="155" fill="url(#paint3_linear_164_178)" fill-opacity="0.3"/>
</g>
<g style="mix-blend-mode:soft-light" filter="url(#filter1_f_164_178)">
<circle cx="1835" cy="-2.00081" r="155" fill="url(#paint4_linear_164_178)" fill-opacity="0.11"/>
</g>
<g style="mix-blend-mode:soft-light" filter="url(#filter2_f_164_178)">
<circle cx="680.191" cy="-149.81" r="259.094" transform="rotate(90.0214 680.191 -149.81)" fill="url(#paint5_linear_164_178)" fill-opacity="0.1"/>
</g>
<g style="mix-blend-mode:soft-light" filter="url(#filter3_f_164_178)">
<circle cx="1012.71" cy="460.712" r="166.651" transform="rotate(90.0214 1012.71 460.712)" fill="url(#paint6_linear_164_178)" fill-opacity="0.22"/>
</g>
</g>
<defs>
<filter id="filter0_f_164_178" x="-98" y="67.9992" width="382" height="382" filterUnits="userSpaceOnUse" color-interpolation-filters="sRGB">
<feFlood flood-opacity="0" result="BackgroundImageFix"/>
<feBlend mode="normal" in="SourceGraphic" in2="BackgroundImageFix" result="shape"/>
<feGaussianBlur stdDeviation="18" result="effect1_foregroundBlur_164_178"/>
</filter>
<filter id="filter1_f_164_178" x="1665" y="-172.001" width="340" height="340" filterUnits="userSpaceOnUse" color-interpolation-filters="sRGB">
<feFlood flood-opacity="0" result="BackgroundImageFix"/>
<feBlend mode="normal" in="SourceGraphic" in2="BackgroundImageFix" result="shape"/>
<feGaussianBlur stdDeviation="7.5" result="effect1_foregroundBlur_164_178"/>
</filter>
<filter id="filter2_f_164_178" x="396.097" y="-433.904" width="568.188" height="568.189" filterUnits="userSpaceOnUse" color-interpolation-filters="sRGB">
<feFlood flood-opacity="0" result="BackgroundImageFix"/>
<feBlend mode="normal" in="SourceGraphic" in2="BackgroundImageFix" result="shape"/>
<feGaussianBlur stdDeviation="12.5" result="effect1_foregroundBlur_164_178"/>
</filter>
<filter id="filter3_f_164_178" x="824.062" y="272.061" width="377.301" height="377.301" filterUnits="userSpaceOnUse" color-interpolation-filters="sRGB">
<feFlood flood-opacity="0" result="BackgroundImageFix"/>
<feBlend mode="normal" in="SourceGraphic" in2="BackgroundImageFix" result="shape"/>
<feGaussianBlur stdDeviation="11" result="effect1_foregroundBlur_164_178"/>
</filter>
<linearGradient id="paint0_linear_164_178" x1="352" y1="-419.094" x2="1941.72" y2="1394.17" gradientUnits="userSpaceOnUse">
<stop stop-color="#034275"/>
<stop offset="1" stop-color="#02A9F7"/>
</linearGradient>
<linearGradient id="paint1_linear_164_178" x1="352" y1="-419.093" x2="1941.72" y2="1394.17" gradientUnits="userSpaceOnUse">
<stop stop-color="#034275"/>
<stop offset="1" stop-color="#02A9F7"/>
</linearGradient>
<linearGradient id="paint2_linear_164_178" x1="488.534" y1="571.912" x2="-189.537" y2="-346.991" gradientUnits="userSpaceOnUse">
<stop stop-color="#1097CD"/>
<stop offset="1" stop-color="#00339B"/>
</linearGradient>
<linearGradient id="paint3_linear_164_178" x1="93" y1="103.999" x2="93" y2="413.999" gradientUnits="userSpaceOnUse">
<stop stop-color="#D4F0FC"/>
<stop offset="1" stop-color="#D9D9D9" stop-opacity="0"/>
</linearGradient>
<linearGradient id="paint4_linear_164_178" x1="1835" y1="-157.001" x2="1835" y2="152.999" gradientUnits="userSpaceOnUse">
<stop stop-color="#D4F0FC"/>
<stop offset="1" stop-color="#D9D9D9" stop-opacity="0"/>
</linearGradient>
<linearGradient id="paint5_linear_164_178" x1="680.191" y1="-408.904" x2="680.191" y2="109.285" gradientUnits="userSpaceOnUse">
<stop stop-color="#D4F0FC"/>
<stop offset="1" stop-color="#D9D9D9" stop-opacity="0"/>
</linearGradient>
<linearGradient id="paint6_linear_164_178" x1="1012.71" y1="294.061" x2="1012.71" y2="627.363" gradientUnits="userSpaceOnUse">
<stop stop-color="#D4F0FC"/>
<stop offset="1" stop-color="#D9D9D9" stop-opacity="0"/>
</linearGradient>
<clipPath id="clip0_164_178">
<rect width="1916" height="840" fill="white"/>
</clipPath>
</defs>
</svg>

<svg xmlns="http://www.w3.org/2000/svg" width="1916" height="840" fill="none"><g clip-path="url(#a)"><path fill="#D4F0FC" d="M0 0h1916v840H0z"/><path fill="url(#b)" d="M1918-111.5H-6v796.181c698 267.23 1649.33 123.933 1924 0V-111.5Z"/><path fill="url(#c)" fill-opacity=".8" d="M1918-111.5H-6v796.181c698 267.23 1649.33 123.933 1924 0V-111.5Z" style="mix-blend-mode:color-dodge"/><g clip-rule="evenodd" style="mix-blend-mode:screen"><path fill="url(#d)" fill-opacity=".2" fill-rule="evenodd" d="m1260.99 1.904-28.32 20.9c-28.32 20.901-86.26 63.651-182.82 51.356-97.856-11.344-234.339-77.735-303.678-50.44-68.052 26.344-68.961 146.374-108.5 211.359-39.54 64.984-120.284 76.823-194.039 95.439-75.042 19.567-143.094 45.912-195.326 96.39-50.944 49.529-86.068 123.191-142.715 164.992-56.647 41.8-59.646 12.572-110.59 62.1 0 21.059 1-512 0-652.096H1260.99Z"/><path stroke="#000" d="m1260.99 1.904-28.32 20.9c-28.32 20.901-86.26 63.651-182.82 51.356-97.856-11.344-234.339-77.735-303.678-50.44-68.052 26.344-68.961 146.374-108.5 211.359-39.54 64.984-120.284 76.823-194.039 95.439-75.042 19.567-143.094 45.912-195.326 96.39-50.944 49.529-86.068 123.191-142.715 164.992-56.647 41.8-59.646 12.572-110.59 62.1 0 21.059 1-512 0-652.096H1260.99Z"/></g><g filter="url(#e)" style="mix-blend-mode:soft-light"><circle cx="93" cy="258.999" r="155" fill="url(#f)" fill-opacity=".3"/></g><g filter="url(#g)" style="mix-blend-mode:soft-light"><circle cx="1835" cy="-2.001" r="155" fill="url(#h)" fill-opacity=".11"/></g><g filter="url(#i)" style="mix-blend-mode:soft-light"><circle cx="680.191" cy="-149.81" r="259.094" fill="url(#j)" fill-opacity=".1" transform="rotate(90.021 680.191 -149.81)"/></g><g filter="url(#k)" style="mix-blend-mode:soft-light"><circle cx="1012.71" cy="460.712" r="166.651" fill="url(#l)" fill-opacity=".22" transform="rotate(90.021 1012.71 460.712)"/></g></g><defs><linearGradient id="d" x1="488.534" x2="-189.537" y1="571.912" y2="-346.991" gradientUnits="userSpaceOnUse"><stop stop-color="#1097CD"/><stop offset="1" stop-color="#00339B"/></linearGradient><linearGradient id="b" x1="352" x2="1941.72" y1="-419.094" y2="1394.17" gradientUnits="userSpaceOnUse"><stop stop-color="#034275"/><stop offset="1" stop-color="#02A9F7"/></linearGradient><linearGradient id="c" x1="352" x2="1941.72" y1="-419.093" y2="1394.17" gradientUnits="userSpaceOnUse"><stop stop-color="#034275"/><stop offset="1" stop-color="#02A9F7"/></linearGradient><linearGradient id="f" x1="93" x2="93" y1="103.999" y2="413.999" gradientUnits="userSpaceOnUse"><stop stop-color="#D4F0FC"/><stop offset="1" stop-color="#D9D9D9" stop-opacity="0"/></linearGradient><linearGradient id="h" x1="1835" x2="1835" y1="-157.001" y2="152.999" gradientUnits="userSpaceOnUse"><stop stop-color="#D4F0FC"/><stop offset="1" stop-color="#D9D9D9" stop-opacity="0"/></linearGradient><linearGradient id="j" x1="680.191" x2="680.191" y1="-408.904" y2="109.285" gradientUnits="userSpaceOnUse"><stop stop-color="#D4F0FC"/><stop offset="1" stop-color="#D9D9D9" stop-opacity="0"/></linearGradient><linearGradient id="l" x1="1012.71" x2="1012.71" y1="294.061" y2="627.363" gradientUnits="userSpaceOnUse"><stop stop-color="#D4F0FC"/><stop offset="1" stop-color="#D9D9D9" stop-opacity="0"/></linearGradient><filter id="k" width="377.301" height="377.301" x="824.062" y="272.061" color-interpolation-filters="sRGB" filterUnits="userSpaceOnUse"><feFlood flood-opacity="0" result="BackgroundImageFix"/><feBlend in="SourceGraphic" in2="BackgroundImageFix" result="shape"/><feGaussianBlur result="effect1_foregroundBlur_164_178" stdDeviation="11"/></filter><filter id="e" width="382" height="382" x="-98" y="67.999" color-interpolation-filters="sRGB" filterUnits="userSpaceOnUse"><feFlood flood-opacity="0" result="BackgroundImageFix"/><feBlend in="SourceGraphic" in2="BackgroundImageFix" result="shape"/><feGaussianBlur result="effect1_foregroundBlur_164_178" stdDeviation="18"/></filter><filter id="i" width="568.188" height="568.189" x="396.097" y="-433.904" color-interpolation-filters="sRGB" filterUnits="userSpaceOnUse"><feFlood flood-opacity="0" result="BackgroundImageFix"/><feBlend in="SourceGraphic" in2="BackgroundImageFix" result="shape"/><feGaussianBlur result="effect1_foregroundBlur_164_178" stdDeviation="12.5"/></filter><filter id="g" width="340" height="340" x="1665" y="-172.001" color-interpolation-filters="sRGB" filterUnits="userSpaceOnUse"><feFlood flood-opacity="0" result="BackgroundImageFix"/><feBlend in="SourceGraphic" in2="BackgroundImageFix" result="shape"/><feGaussianBlur result="effect1_foregroundBlur_164_178" stdDeviation="7.5"/></filter><clipPath id="a"><path fill="#fff" d="M0 0h1916v840H0z"/></clipPath></defs></svg>
